X:1
T:Title
%%score [ ( 1 2 ) ( 3 4 ) ]
L:1/8
Q:1/4=120
M:4/4
K:G
V:1 treble nm="Midi_74"
V:2 treble 
V:3 bass nm="Midi_74"
V:4 bass 
V:1
 G8 | A4 B4 | c8 || B8 | A4 G4 | F4"^Edward Francis Rimbault\n(1816-1876)" F4 | E8 |] %7
V:2
 E8 | E4 E4 | E8 || E8 | E4 E4 | E4 ^D4 | B,8 |] %7
V:3
 B,8 | A,4 G,4 | A,8 || G,8 | A,4 B,4 | C4 B,2 A,2 | G,8 |] %7
V:4
 E,8 | C,4 E,4 | A,,8 || E,8 | C,4 E,4 | A,,4 B,,4 | E,8 |] %7

